src/Icons/icons/split-polygon.svg

<svg width="24" height="24" viewBox="0 0 24 24" fill="#4C4C4C" xmlns="http://www.w3.org/2000/svg">
  <path fill-rule="evenodd" clip-rule="evenodd" d="M13.8386 1.9406L1.67272 9.73538L3.87729 20.6998L13.3544 22.3637L22.0481 10.8167L13.8386 1.9406ZM24 10.7179L14.087 0L0 9.02564L2.6087 22L14 24L24 10.7179Z" />
  <path fill-rule="evenodd" clip-rule="evenodd" d="M2.49989 3.49999L0.249887 1.24999L1.31055 0.189331L3.56055 2.43933L2.49989 3.49999ZM5.87489 6.87499L3.62489 4.62499L4.68555 3.56433L6.93555 5.81433L5.87489 6.87499ZM9.24989 10.25L6.99989 7.99999L8.06055 6.93933L10.3105 9.18933L9.24989 10.25ZM12.6249 13.625L10.3749 11.375L11.4355 10.3143L13.6855 12.5643L12.6249 13.625ZM15.9999 17L13.7499 14.75L14.8105 13.6893L17.0605 15.9393L15.9999 17ZM19.3749 20.375L17.1249 18.125L18.1855 17.0643L20.4355 19.3143L19.3749 20.375ZM22.7499 23.75L20.4999 21.5L21.5605 20.4393L23.8105 22.6893L22.7499 23.75Z" />
</svg>

<svg viewBox="0 0 24 24" fill="#4C4C4C" xmlns="http://www.w3.org/2000/svg"><path fill-rule="evenodd" clip-rule="evenodd" d="M13.839 1.94 1.673 9.736 3.877 20.7l9.477 1.664 8.694-11.547-8.21-8.876ZM24 10.719 14.087 0 0 9.026 2.609 22 14 24l10-13.282Z"/><path fill-rule="evenodd" clip-rule="evenodd" d="M2.5 3.5.25 1.25 1.31.19l2.25 2.25L2.5 3.5Zm3.375 3.375-2.25-2.25 1.06-1.06 2.25 2.25-1.06 1.06ZM9.25 10.25 7 8l1.06-1.06 2.25 2.25-1.06 1.06Zm3.375 3.375-2.25-2.25 1.06-1.06 2.25 2.25-1.06 1.06ZM16 17l-2.25-2.25 1.06-1.06 2.25 2.25L16 17Zm3.375 3.375-2.25-2.25 1.06-1.06 2.25 2.25-1.06 1.06Zm3.375 3.375L20.5 21.5l1.06-1.06 2.25 2.25-1.06 1.06Z"/></svg>
